X:8
T:If Ever You Were Mine
C:Maurice Lennon
R:Waltz
S:Natalie MacMaster, "Fit As A Fiddle"
S:Si <SiGarb:aol.com> tradtunes 2010-2-22
N:From her handwritten notation at
N:http://www.nataliemacmaster.com/tunes/faaf/ifeveryouweremine.jpg
N:(I have halved the values of some of the notes
N:in bars 7, 14, 16, 22, 31, 33 & 34
N:to normalise the lengths of those bars)
N:also recorded by Stockton's Wing & Cherish the Ladies
M:3/4
L:1/8
Q:200
K:G
DE |\
G4 e2 | d4 B/A/ G | AB G2 G2 | G4 DE |\
G4 e2 | d4 Bd | d6 | d2 e2 f2 |
g3 g ed | g3 g ed | e2d3B | ABG2G/F/ E |\
D4e2 | d4B/A/ G | DE G2GA | G6- | G4dc |
B3d B/A/ G | d4 Bd | c2d2e2 | d4 Bc |\
B3d B/A/ G | d4 Bd | c2d2e2 | de fd ef |
g3 g ed | g3 g ed | e2 d3 B | ABG2G/F/ E |\
D4e2 | d4B/A/ G | DE G2GA | G6- | G4 |]
